X:64
T:Drowzy Lane
Z:Jack Campin - http://www.campin.me.uk
S:Blaikie MS (NLS MS.1578) p20
N:Blaikie #59
M:6/8
L:1/8
V:1 midi program 1 74
V:2 midi program 1 46 bass middle = d transpose -24
Q:3/8=90
K:E Minor
[V:1] A|B2d B2G|B2d B2G|(F<A)A B2d|e2A A2
[V:2] z|G3  g3 |G3  g3 | d3    g3 |c3  d2
%
[V:1] G|B2d B2G|B2d B2G| AAA   B2A|G2E E2|]
[V:2] z|G3  g3 |G3  g3 | c3    B3 |e2e e2|]
W:Transcription (c) Jack Campin 2009, no mirroring or republication without permission

